austria/municipalities/60639.svg

<?xml version="1.0" encoding="UTF-8" standalone="no"?>
<!-- Created with Inkscape (http://www.inkscape.org/) -->

<svg
   xml:space="preserve"
   id="svg11947"
   version="1.1"
   viewBox="0 0 31.75 38.1"
   width="120"
   height="144"
   sodipodi:docname="AUT_Sankt_Bartholomä_COA.svg"
   inkscape:version="1.2 (dc2aeda, 2022-05-15)"
   xmlns:inkscape="http://www.inkscape.org/namespaces/inkscape"
   xmlns:sodipodi="http://sodipodi.sourceforge.net/DTD/sodipodi-0.dtd"
   xmlns="http://www.w3.org/2000/svg"
   xmlns:svg="http://www.w3.org/2000/svg"><sodipodi:namedview
     id="namedview198"
     pagecolor="#ffffff"
     bordercolor="#000000"
     borderopacity="0.25"
     inkscape:showpageshadow="2"
     inkscape:pageopacity="0.0"
     inkscape:pagecheckerboard="0"
     inkscape:deskcolor="#d1d1d1"
     inkscape:document-units="px"
     showgrid="false"
     inkscape:zoom="1.9991732"
     inkscape:cx="26.51096"
     inkscape:cy="30.262511"
     inkscape:window-width="1390"
     inkscape:window-height="1205"
     inkscape:window-x="2240"
     inkscape:window-y="25"
     inkscape:window-maximized="0"
     inkscape:current-layer="svg11947" /><defs
     id="defs11944"><linearGradient
       id="s_Salbe_Schwarz"
       inkscape:swatch="solid"><stop
         style="stop-color:#000000;stop-opacity:1;"
         offset="0"
         id="stop3747" /></linearGradient><linearGradient
       id="a_Argent_Silber"
       inkscape:swatch="solid"><stop
         style="stop-color:#ffffff;stop-opacity:1;"
         offset="0"
         id="stop3741" /></linearGradient><linearGradient
       id="A_Argent-dark_Silber-dunkel"
       inkscape:swatch="solid"><stop
         style="stop-color:#e7e7e7;stop-opacity:1;"
         offset="0"
         id="stop3735" /></linearGradient><linearGradient
       id="g_Gules_Rot"
       inkscape:swatch="solid"><stop
         style="stop-color:#da121a;stop-opacity:1;"
         offset="0"
         id="stop3729" /></linearGradient><linearGradient
       id="o_Or_Gold"
       inkscape:swatch="solid"><stop
         style="stop-color:#fcdd09;stop-opacity:1;"
         offset="0"
         id="stop3723" /></linearGradient><linearGradient
       id="b_Azure_Blau"
       inkscape:swatch="solid"><stop
         style="stop-color:#0f47af;stop-opacity:1;"
         offset="0"
         id="stop3717" /></linearGradient><linearGradient
       id="B_Bleu-celeste_Hellblau"
       inkscape:swatch="solid"><stop
         style="stop-color:#4d87ca;stop-opacity:1;"
         offset="0"
         id="stop3711" /></linearGradient><linearGradient
       id="B_Bleu-celeste-alt_Hellblau-alt"
       inkscape:swatch="solid"><stop
         style="stop-color:#89c5e3;stop-opacity:1;"
         offset="0"
         id="stop3705" /></linearGradient><linearGradient
       id="v_Vert_Gruen"
       inkscape:swatch="solid"><stop
         style="stop-color:#078930;stop-opacity:1;"
         offset="0"
         id="stop3699" /></linearGradient><linearGradient
       id="c_Carnation_Fleischfarbe"
       inkscape:swatch="solid"><stop
         style="stop-color:#f2a772;stop-opacity:1;"
         offset="0"
         id="stop3693" /></linearGradient><linearGradient
       id="p_Purpure_Purpur"
       inkscape:swatch="solid"><stop
         style="stop-color:#9116a1;stop-opacity:1;"
         offset="0"
         id="stop3687" /></linearGradient><linearGradient
       id="t_Tenne_Braun"
       inkscape:swatch="solid"><stop
         style="stop-color:#9d5333;stop-opacity:1;"
         offset="0"
         id="stop3681" /></linearGradient><linearGradient
       id="C_Cendre_Eisen"
       inkscape:swatch="solid"><stop
         style="stop-color:#999999;stop-opacity:1;"
         offset="0"
         id="stop3675" /></linearGradient><linearGradient
       id="Murray_Maulbeere"
       inkscape:swatch="solid"><stop
         style="stop-color:#630727;stop-opacity:1;"
         offset="0"
         id="stop3669" /></linearGradient><linearGradient
       id="Rose_Rosa"
       inkscape:swatch="solid"><stop
         style="stop-color:#e63d6a;stop-opacity:1;"
         offset="0"
         id="stop2937" /></linearGradient><linearGradient
       id="Orange_Orange"
       inkscape:swatch="solid"><stop
         style="stop-color:#ed5f00;stop-opacity:1;"
         offset="0"
         id="stop2931" /></linearGradient><linearGradient
       id="Buff_Leder"
       inkscape:swatch="solid"><stop
         style="stop-color:#ddc595;stop-opacity:1;"
         offset="0"
         id="stop2925" /></linearGradient><linearGradient
       id="Copper_Kupfer"
       inkscape:swatch="solid"><stop
         style="stop-color:#953d02;stop-opacity:1;"
         offset="0"
         id="stop1435" /></linearGradient></defs><g
     inkscape:groupmode="layer"
     id="layer1"
     inkscape:label="Wappen"><path
       d="M 2e-7,3.1e-6 V 22.225003 c 0,8.767498 7.107502,15.875 15.8749998,15.875 8.767498,0 15.875,-7.107502 15.875,-15.875 V 3.1e-6 Z"
       id="path11658"
       style="stroke-width:0.264583"
       inkscape:label="Schildrand"
       sodipodi:nodetypes="cssscc" /><path
       id="rect11660"
       style="fill:#da121a;fill-opacity:1;stroke-width:0.529167;stroke-dasharray:none"
       d="M 0.5291666,0.52916659 V 19.314584 22.225 c 0,8.474861 6.8709732,15.345833 15.3458334,15.345833 8.474861,0 15.345833,-6.870972 15.345833,-15.345833 V 19.314584 0.52916659 Z"
       inkscape:label="Schild"
       sodipodi:nodetypes="ccsssccc" /><path
       id="rect2479"
       style="opacity:1;fill:#fcdd09;stroke:#000000;stroke-width:0.264583;stroke-linejoin:miter;paint-order:fill markers stroke"
       d="M 5.6962931,4.0364461 V 6.9019043 H 4.060734 V 9.3136434 H 5.6962931 V 12.057662 H 3.0349568 v 2.411739 H 5.6962931 V 27.713554 H 8.1075154 V 14.469401 H 10.768851 V 12.057662 H 8.1075154 V 9.3136434 H 9.7430745 V 6.9019043 H 8.1075154 V 4.0364461 Z" /><path
       id="path2490"
       style="color:#000000;fill:#fcdd09;stroke-width:0.264583;-inkscape-stroke:none;paint-order:fill markers stroke"
       d="M 13.274642 0.52916667 L 13.274642 16.478064 L 0.52916667 16.478064 L 0.52916667 19.314583 L 0.52916667 21.678263 L 13.274642 21.678263 L 13.274642 37.350175 C 14.120043 37.49452 14.988468 37.570833 15.875 37.570833 C 16.761532 37.570833 17.629957 37.49452 18.475358 37.350175 L 18.475358 21.678263 L 31.220833 21.678263 L 31.220833 19.314583 L 31.220833 16.478064 L 18.475358 16.478064 L 18.475358 0.52916667 L 13.274642 0.52916667 z " /><path
       id="path2492"
       style="color:#000000;fill:#000000;-inkscape-stroke:none;paint-order:fill markers stroke"
       d="M 13.14235 0.52916667 L 13.14235 16.345772 L 0.52916667 16.345772 L 0.52916667 16.611389 L 13.406417 16.611389 L 13.406417 0.52916667 L 13.14235 0.52916667 z M 18.343583 0.52916667 L 18.343583 16.611389 L 31.220833 16.611389 L 31.220833 16.345772 L 18.60765 16.345772 L 18.60765 0.52916667 L 18.343583 0.52916667 z M 0.52916667 21.547005 L 0.52916667 21.810555 L 13.14235 21.810555 L 13.14235 37.327954 C 13.230049 37.34372 13.318207 37.358127 13.406417 37.372396 L 13.406417 21.547005 L 0.52916667 21.547005 z M 18.343583 21.547005 L 18.343583 37.372396 C 18.431793 37.358127 18.519951 37.34372 18.60765 37.327954 L 18.60765 21.810555 L 31.220833 21.810555 L 31.220833 21.547005 L 18.343583 21.547005 z " /></g></svg>

<svg xml:space="preserve" viewBox="0 0 31.75 38.1" width="120" height="144" xmlns="http://www.w3.org/2000/svg"><path d="M0 0v22.225C0 30.993 7.108 38.1 15.875 38.1S31.75 30.993 31.75 22.225V0z" style="stroke-width:.264583"/><path style="fill:#da121a;fill-opacity:1;stroke-width:.529167;stroke-dasharray:none" d="M.53.53v21.695c0 8.475 6.87 15.346 15.345 15.346 8.475 0 15.346-6.871 15.346-15.346V.529z"/><path style="opacity:1;fill:#fcdd09;stroke:#000;stroke-width:.264583;stroke-linejoin:miter;paint-order:fill markers stroke" d="M5.696 4.036v2.866H4.061v2.412h1.635v2.744H3.035v2.411h2.661v13.245h2.412V14.469h2.66v-2.411h-2.66V9.314h1.635V6.902H8.108V4.036z"/><path style="color:#000;fill:#fcdd09;stroke-width:.264583;-inkscape-stroke:none;paint-order:fill markers stroke" d="M13.275.53v15.948H.529v5.2h12.746V37.35a15.438 15.438 0 0 0 5.2 0V21.678h12.746v-5.2H18.475V.53h-5.2z"/><path style="color:#000;fill:#000;-inkscape-stroke:none;paint-order:fill markers stroke" d="M13.142.53v15.816H.53v.265h12.877V.53h-.264zm5.202 0V16.61H31.22v-.265H18.608V.529h-.264zM.529 21.546v.264h12.613v15.517c.088.016.176.03.264.044V21.547H.53zm17.815 0v15.825c.088-.014.176-.028.264-.044V21.811H31.22v-.264H18.344z"/></svg>
